X:475
T:Reel 475
M:4/4
K:Cmaj
L:1/8
GA|GC (3EDC GCEC|GcBd cdec|BDFD B,CDC|FDBc BcBd||GccB cdef|gfed cdc2|GccB cdec|Bcde fdBd| (3efe ce  (3efe ce|Bded edec|GB (3BAB defe| (3ded Bd cded|egfe dBcd|cABc GFECC
